icons/listennotes.svg

<svg width="32" height="32" viewBox="0 0 32 32" fill="none" xmlns="http://www.w3.org/2000/svg">
<path d="M3.36667 28.6333C0.913335 26.18 0 22.18 0 16C0 9.82 0.913335 5.82 3.36667 3.36667C5.82 0.913335 9.82 0 16 0C22.18 0 26.18 0.913335 28.6333 3.36667C31.0867 5.82 32 9.82 32 16C32 22.18 31.0867 26.18 28.6333 28.6333C26.18 31.0867 22.18 32 16 32C9.82 32 5.82 31.0867 3.36667 28.6333Z" fill="white"/>
<path d="M24.5467 21.8267C23.5467 20.86 22.52 20.1134 21.6333 19.6734C22.8267 18.0867 23.5467 16.12 23.5467 13.98C23.5467 8.74669 19.2867 4.48669 14.0533 4.48669C8.82 4.48669 4.56 8.74669 4.56 13.98C4.56 19.2134 8.82 23.4734 14.0533 23.4734C16.2267 23.4734 18.2267 22.7334 19.8267 21.5C20.3 22.3734 21.0867 23.3867 22.1 24.36C24.2 26.3867 26.4467 27.46 27.12 26.7667C27.8 26.0667 26.6467 23.8534 24.5467 21.8267ZM6.54667 13.98C6.54667 9.84003 9.91333 6.47336 14.0533 6.47336C18.1933 6.47336 21.56 9.84003 21.56 13.98C21.56 18.12 18.1933 21.4867 14.0533 21.4867C9.91333 21.4867 6.54667 18.12 6.54667 13.98ZM18.1933 26.96C18.1933 27.2334 16.08 27.46 13.48 27.46C10.88 27.46 8.77334 27.24 8.77334 26.96C8.77334 26.68 10.8867 26.4667 13.48 26.4667C16.0733 26.4667 18.1933 26.6867 18.1933 26.96Z" fill="black"/>
<path d="M19.2 17.66H17.8C17.8 13.5267 14.4733 10.1667 10.38 10.1667V8.76666C15.24 8.76666 19.2 12.76 19.2 17.66ZM10.1533 11.4267V12.7133C13.0533 12.7133 15.4067 15.0333 15.4067 17.8933H16.6933C16.6933 14.3333 13.76 11.4333 10.1533 11.4333V11.4267ZM10.1533 13.6467V14.9333C11.74 14.9333 13.0333 16.2067 13.0333 17.78H14.32C14.32 15.5 12.4533 13.6533 10.1533 13.6533V13.6467ZM10.88 16.02C10.2067 16.02 9.66 16.5667 9.66 17.24C9.66 17.9133 10.2067 18.4533 10.88 18.4533C11.5533 18.4533 12.0933 17.9067 12.0933 17.24C12.0933 16.5733 11.5467 16.02 10.88 16.02Z" fill="#B82F00"/>
</svg>

<svg xmlns="http://www.w3.org/2000/svg" width="32" height="32" fill="none" viewBox="0 0 32 32">
  <path fill="#fff" d="M3.367 28.633C.913 26.18 0 22.18 0 16 0 9.82.913 5.82 3.367 3.367 5.82.913 9.82 0 16 0c6.18 0 10.18.913 12.633 3.367C31.087 5.82 32 9.82 32 16c0 6.18-.913 10.18-3.367 12.633C26.18 31.087 22.18 32 16 32c-6.18 0-10.18-.913-12.633-3.367Z"/>
  <path fill="#000" d="M24.547 21.827c-1-.967-2.027-1.714-2.914-2.154a9.44 9.44 0 0 0 1.914-5.693c0-5.233-4.26-9.493-9.494-9.493-5.233 0-9.493 4.26-9.493 9.493 0 5.233 4.26 9.493 9.493 9.493 2.174 0 4.174-.74 5.774-1.973.473.873 1.26 1.887 2.273 2.86 2.1 2.027 4.347 3.1 5.02 2.407.68-.7-.473-2.914-2.573-4.94Zm-18-7.847c0-4.14 3.366-7.507 7.506-7.507 4.14 0 7.507 3.367 7.507 7.507s-3.367 7.507-7.507 7.507-7.506-3.367-7.506-7.507Zm11.646 12.98c0 .273-2.113.5-4.713.5s-4.707-.22-4.707-.5 2.114-.493 4.707-.493 4.713.22 4.713.493Z"/>
  <path fill="#B82F00" d="M19.2 17.66h-1.4c0-4.133-3.327-7.493-7.42-7.493v-1.4c4.86 0 8.82 3.993 8.82 8.893Zm-9.047-6.233v1.286c2.9 0 5.254 2.32 5.254 5.18h1.286c0-3.56-2.933-6.46-6.54-6.46v-.006Zm0 2.22v1.286c1.587 0 2.88 1.274 2.88 2.847h1.287c0-2.28-1.867-4.127-4.167-4.127v-.006Zm.727 2.373a1.22 1.22 0 0 0-1.22 1.22c0 .673.547 1.213 1.22 1.213.673 0 1.213-.546 1.213-1.213s-.546-1.22-1.213-1.22Z"/>
</svg>
